Origami/48x48/apps/scout-app.svg

<svg width="48" height="48" version="1.1" viewBox="0 0 48 48" xmlns="http://www.w3.org/2000/svg">
 <path d="m24 8.9985112c-1.023971 0.005648-2.007111 0.1097549-3.013672 0.3105469-7.421589 1.4428309-13.454606 6.2057369-11.671875 13.962891 0.8768329 3.81652 3.0094249 6.267377 3.8281249 8.703124 2.170282 6.453952 1.938288 9.768684 6.09961 11.201172 1.673795 0.572136 3.025889 0.846621 4.757812 0.822266 1.731923 0.02435 3.084017-0.25013 4.757812-0.822266 4.161322-1.432488 3.929328-4.74722 6.09961-11.201172 0.8187-2.435747 2.951292-4.886604 3.828125-8.703124 1.782731-7.757154-4.250286-12.52006-11.671875-13.962891-1.006561-0.200792-1.989701-0.3048969-3.013672-0.3105469z" style="opacity:.2"/>
 <path d="m24 8c-1.023971 0.005648-2.007111 0.1097549-3.013672 0.3105469-7.421589 1.4428306-12.655059 6.2057371-10.872328 13.962891 0.876833 3.81652 2.209878 6.267377 3.028578 8.703124 2.170282 6.453952 1.938288 9.768684 6.09961 11.201172 1.673795 0.572136 3.025889 0.846621 4.757812 0.822266 1.731923 0.02435 3.084017-0.25013 4.757812-0.822266 4.161322-1.432488 3.929328-4.74722 6.09961-11.201172 0.8187-2.435747 1.651745-4.886604 2.528578-8.703124 1.782731-7.757154-2.950739-12.52006-10.372328-13.962891-1.006561-0.200792-1.989701-0.3048969-3.013672-0.3105469z" style="fill:#d7cec7"/>
 <path d="m26.974609 8.3046875a17.095813 18.249995 0 0 1 0.03906 0.00586c6.957743 1.3526531 12.695152 5.6227205 11.916018 12.542968-0.05343 0.461946-0.133487 0.93258-0.24414 1.414062-0.0083 0.03607-0.01892 0.06769-0.02734 0.103516-0.87949 3.709962-2.930301 6.128239-3.763672 8.511718-5.447859-1.766394-9.894535-7.319182-9.894535-14.359374-0.01083-2.691102 0.799128-5.773334 1.974609-8.2187505z" style="fill:#de8c4a"/>
 <path d="m21.025391 8.3046875a17.095813 18.249995 0 0 0 -0.03906 0.00586c-6.957743 1.3526531-12.695152 5.6227205-11.916018 12.542968 0.053429 0.461946 0.1334876 0.93258 0.2441406 1.414062 0.00829 0.03607 0.018923 0.06769 0.027344 0.103516 0.8794899 3.709962 2.9303009 6.128239 3.7636719 8.511718 5.447855-1.766394 9.894531-7.319182 9.894531-14.359374 0.010834-2.691102-0.799128-5.773334-1.974609-8.2187505z" style="fill:#de8c4a"/>
 <path d="m24 8c-1.023971 0.005648-2.007111 0.1097549-3.013672 0.3105469-6.694906 1.3015561-12.238149 5.3134491-11.955078 11.779297 0.3011451-5.880908 5.611571-9.548009 11.955078-10.78125 1.006561-0.200792 1.989701-0.3048989 3.013672-0.3105469 1.023971 0.00565 2.007111 0.1097549 3.013672 0.3105469 6.343507 1.2332412 11.653933 4.9003422 11.955078 10.78125 0.283071-6.465848-5.260172-10.477741-11.955078-11.779297-1.006561-0.200792-1.989701-0.3048969-3.013672-0.3105469z" style="fill:#ffffff;opacity:.2"/>
 <path d="M 23.265625,33 C 22.566402,33 22,33.676483 22,34.511719 22,35.355554 23.302752,37 24,37 24.697248,37 26,35.355554 26,34.511719 26,33.676483 25.433598,33 24.734375,33 L 24,33 23.265625,33 Z" style="fill:#3f3f3f"/>
 <circle cx="16.5" cy="24.5" r="2.5" style="opacity:.2"/>
 <circle cx="16.5" cy="23.5" r="2.5" style="fill:#3f3f3f"/>
 <circle cx="16" cy="23" r="1" style="fill:#ffffff"/>
 <path d="m26 41c0 1.104569-0.895431 2-2 2s-2-0.895431-2-2c0-0.238011 0.04158-0.466311 0.117861-0.678034 0.277741-0.770851 0.974722-0.341374 1.841281-0.341374 0.865643 0 1.643697-0.430641 1.922116 0.338932 0.076846 0.212409 0.118742 0.44155 0.118742 0.680476z" style="fill:#d86f6f"/>
 <path d="m19 38.5s1.338412 1.691185 2.5 1.999661c0.720386 0.191309 2.5-1 2.5-1s1.779614 1.191309 2.5 1c1.161588-0.308476 2.5-1.999661 2.5-1.999661" style="fill:none;stroke-linecap:round;stroke-linejoin:round;stroke:#79431b"/>
 <path d="m17.863484 11.752634s3.988135-4.0085253 1.066784-5.149421c-3.27242-1.278001-12.017006-0.4707499-15.067033 1.8599369-1.1642472 0.8657972-0.8934357 1.6168221-0.6514727 2.6426421 0.8373244 3.548601 3.0082419 12.599621 3.4340918 12.885326 0.5300875 0.35564 11.21763-12.238484 11.21763-12.238484z" style="opacity:.2"/>
 <path d="m17.863484 10.754123s3.988135-4.0085255 1.066784-5.1494212c-3.27242-1.278001-12.017006-0.4707499-15.067033 1.8599369-1.1642472 0.8657972-0.8934357 1.6168216-0.6514727 2.6426423 0.8373244 3.548601 3.0082419 12.599621 3.4340918 12.885326 0.5300875 0.35564 11.21763-12.238484 11.21763-12.238484z" style="fill:#86522b"/>
 <path d="m30.136516 11.752634s-3.988135-4.0085253-1.066784-5.149421c3.27242-1.278001 12.017006-0.4707499 15.067033 1.8599369 1.164247 0.8657972 0.893435 1.6168221 0.651472 2.6426421-0.837324 3.548601-3.008242 12.599621-3.434092 12.885326-0.530087 0.35564-11.217629-12.238484-11.217629-12.238484z" style="opacity:.2"/>
 <path d="m30.136516 10.754123s-3.988135-4.0085255-1.066784-5.1494212c3.27242-1.278001 12.017006-0.4707499 15.067033 1.8599369 1.164247 0.8657972 0.893435 1.6168216 0.651472 2.6426423-0.837324 3.548601-3.008242 12.599621-3.434092 12.885326-0.530087 0.35564-11.217629-12.238484-11.217629-12.238484z" style="fill:#86522b"/>
 <circle cx="31.5" cy="24.5" r="2.5" style="opacity:.2"/>
 <circle cx="31.5" cy="23.5" r="2.5" style="fill:#3f3f3f"/>
 <circle cx="31" cy="23" r="1" style="fill:#ffffff"/>
 <path d="m13.529297 5.0175781c-3.6288901 0.1293329-7.7597493 0.9905864-9.6660158 2.4472657-0.910119 0.6768137-0.9393916 1.2871263-0.7949218 2.0097656 0.1000099-0.3348483 0.3287887-0.6631238 0.7949218-1.0097656 3.0500264-2.3306869 11.793987-3.137376 15.066407-1.859375 0.563517 0.2200744 0.866595 0.5475165 0.99414 0.9316406 0.192508-0.7968606 0.017013-1.5367478-0.99414-1.9316406-1.227158-0.4792504-3.223057-0.6654904-5.400391-0.5878907z" style="fill:#ffffff;opacity:.1"/>
 <path d="m34.470703 5.0175781c-2.177334-0.0775997-4.173233 0.1086403-5.400391 0.5878907-1.011153 0.3948928-1.186648 1.13478-0.99414 1.9316406 0.127545-0.3841241 0.430623-0.7115662 0.99414-0.9316406 3.27242-1.278001 12.01638-0.4713119 15.066407 1.859375 0.466133 0.3466418 0.694912 0.6749173 0.794922 1.0097656 0.14447-0.7226393 0.115197-1.3329519-0.794922-2.0097656-1.906267-1.4566793-6.037126-2.3179328-9.666016-2.4472657z" style="fill:#ffffff;opacity:.1"/>
</svg>

<svg xmlns="http://www.w3.org/2000/svg" width="48" height="48" version="1.1" viewBox="0 0 48 48">
 <path style="opacity:0.2" d="M 24,8.9985112 C 22.976029,9.0041592 21.992889,9.1082661 20.986328,9.3090581 13.564739,10.751889 7.5317217,15.514795 9.3144531,23.271949 c 0.8768329,3.81652 3.0094249,6.267377 3.8281249,8.703124 2.170282,6.453952 1.938288,9.768684 6.09961,11.201172 1.673795,0.572136 3.025889,0.846621 4.757812,0.822266 1.731923,0.02435 3.084017,-0.25013 4.757812,-0.822266 4.161322,-1.432488 3.929328,-4.74722 6.09961,-11.201172 0.8187,-2.435747 2.951292,-4.886604 3.828125,-8.703124 C 40.468278,15.514795 34.435261,10.751889 27.013672,9.3090581 26.007111,9.1082661 25.023971,9.0041612 24,8.9985112 Z"/>
 <path style="fill:#d7cec7" d="M 24,8 C 22.976029,8.005648 21.992889,8.1097549 20.986328,8.3105469 13.564739,9.7533775 8.3312686,14.516284 10.114,22.273438 c 0.876833,3.81652 2.209878,6.267377 3.028578,8.703124 2.170282,6.453952 1.938288,9.768684 6.09961,11.201172 C 20.915983,42.74987 22.268077,43.024355 24,43 c 1.731923,0.02435 3.084017,-0.25013 4.757812,-0.822266 4.161322,-1.432488 3.929328,-4.74722 6.09961,-11.201172 0.8187,-2.435747 1.651745,-4.886604 2.528578,-8.703124 C 39.168731,14.516284 34.435261,9.7533775 27.013672,8.3105469 26.007111,8.1097549 25.023971,8.00565 24,8 Z"/>
 <path style="fill:#de8c4a" d="m 26.974609,8.3046875 a 17.095813,18.249995 0 0 1 0.03906,0.00586 c 6.957743,1.3526531 12.695152,5.6227205 11.916018,12.5429685 -0.05343,0.461946 -0.133487,0.93258 -0.24414,1.414062 -0.0083,0.03607 -0.01892,0.06769 -0.02734,0.103516 -0.87949,3.709962 -2.930301,6.128239 -3.763672,8.511718 C 29.446676,29.116418 25,23.56363 25,16.523438 c -0.01083,-2.691102 0.799128,-5.773334 1.974609,-8.2187505 z"/>
 <path style="fill:#de8c4a" d="m 21.025391,8.3046875 a 17.095813,18.249995 0 0 0 -0.03906,0.00586 C 14.028588,9.6632006 8.2911789,13.933268 9.0703125,20.853516 c 0.053429,0.461946 0.1334876,0.93258 0.2441406,1.414062 0.00829,0.03607 0.018923,0.06769 0.027344,0.103516 0.8794899,3.709962 2.9303009,6.128239 3.7636719,8.511718 C 18.553324,29.116418 23,23.56363 23,16.523438 23.010834,13.832336 22.200872,10.750104 21.025391,8.3046875 Z"/>
 <path style="fill:#ffffff;opacity:0.2" d="M 24 8 C 22.976029 8.005648 21.992889 8.1097549 20.986328 8.3105469 C 14.291422 9.612103 8.7481792 13.623996 9.03125 20.089844 C 9.3323951 14.208936 14.642821 10.541835 20.986328 9.3085938 C 21.992889 9.1078018 22.976029 9.0036949 24 8.9980469 C 25.023971 9.0036969 26.007111 9.1078018 27.013672 9.3085938 C 33.357179 10.541835 38.667605 14.208936 38.96875 20.089844 C 39.251821 13.623996 33.708578 9.612103 27.013672 8.3105469 C 26.007111 8.1097549 25.023971 8.00565 24 8 z"/>
 <path style="fill:#3f3f3f" d="M 23.265625,33 C 22.566402,33 22,33.676483 22,34.511719 22,35.355554 23.302752,37 24,37 24.697248,37 26,35.355554 26,34.511719 26,33.676483 25.433598,33 24.734375,33 L 24,33 23.265625,33 Z"/>
 <circle style="opacity:0.2" cx="16.5" cy="24.5" r="2.5"/>
 <circle style="fill:#3f3f3f" cx="16.5" cy="23.5" r="2.5"/>
 <circle style="fill:#ffffff" cx="16" cy="23" r="1"/>
 <path style="fill:#d86f6f" d="m 26,41 c 0,1.104569 -0.895431,2 -2,2 -1.104569,0 -2,-0.895431 -2,-2 0,-0.238011 0.04158,-0.466311 0.117861,-0.678034 0.277741,-0.770851 0.974722,-0.341374 1.841281,-0.341374 0.865643,0 1.643697,-0.430641 1.922116,0.338932 C 25.958104,40.531933 26,40.761074 26,41 Z"/>
 <path style="fill:none;stroke:#79431b;stroke-linecap:round;stroke-linejoin:round" d="m 19,38.5 c 0,0 1.338412,1.691185 2.5,1.999661 0.720386,0.191309 2.5,-1 2.5,-1 0,0 1.779614,1.191309 2.5,1 C 27.661588,40.191185 29,38.5 29,38.5"/>
 <path style="opacity:0.2" d="m 17.863484,11.752634 c 0,0 3.988135,-4.0085253 1.066784,-5.149421 C 15.657848,5.325212 6.9132616,6.1324631 3.8632353,8.4631499 2.6989881,9.3289471 2.9697996,10.079972 3.2117626,11.105792 4.049087,14.654393 6.2200045,23.705413 6.6458544,23.991118 7.1759419,24.346758 17.863484,11.752634 17.863484,11.752634 Z"/>
 <path style="fill:#86522b" d="m 17.863484,10.754123 c 0,0 3.988135,-4.0085255 1.066784,-5.1494212 C 15.657848,4.3267008 6.9132616,5.1339519 3.8632353,7.4646387 2.6989881,8.3304359 2.9697996,9.0814603 3.2117626,10.107281 4.049087,13.655882 6.2200045,22.706902 6.6458544,22.992607 7.1759419,23.348247 17.863484,10.754123 17.863484,10.754123 Z"/>
 <path style="opacity:0.2" d="m 30.136516,11.752634 c 0,0 -3.988135,-4.0085253 -1.066784,-5.149421 3.27242,-1.278001 12.017006,-0.4707499 15.067033,1.8599369 1.164247,0.8657972 0.893435,1.6168221 0.651472,2.6426421 -0.837324,3.548601 -3.008242,12.599621 -3.434092,12.885326 -0.530087,0.35564 -11.217629,-12.238484 -11.217629,-12.238484 z"/>
 <path style="fill:#86522b" d="m 30.136516,10.754123 c 0,0 -3.988135,-4.0085255 -1.066784,-5.1494212 3.27242,-1.278001 12.017006,-0.4707499 15.067033,1.8599369 1.164247,0.8657972 0.893435,1.6168216 0.651472,2.6426423 -0.837324,3.548601 -3.008242,12.599621 -3.434092,12.885326 -0.530087,0.35564 -11.217629,-12.238484 -11.217629,-12.238484 z"/>
 <circle style="opacity:0.2" cx="31.5" cy="24.5" r="2.5"/>
 <circle style="fill:#3f3f3f" cx="31.5" cy="23.5" r="2.5"/>
 <circle style="fill:#ffffff" cx="31" cy="23" r="1"/>
 <path style="fill:#ffffff;opacity:0.1" d="M 13.529297 5.0175781 C 9.9004069 5.146911 5.7695477 6.0081645 3.8632812 7.4648438 C 2.9531622 8.1416575 2.9238896 8.7519701 3.0683594 9.4746094 C 3.1683693 9.1397611 3.3971481 8.8114856 3.8632812 8.4648438 C 6.9133076 6.1341569 15.657268 5.3274678 18.929688 6.6054688 C 19.493205 6.8255432 19.796283 7.1529853 19.923828 7.5371094 C 20.116336 6.7402488 19.940841 6.0003616 18.929688 5.6054688 C 17.70253 5.1262184 15.706631 4.9399784 13.529297 5.0175781 z"/>
 <path style="fill:#ffffff;opacity:0.1" d="M 34.470703 5.0175781 C 32.293369 4.9399784 30.29747 5.1262184 29.070312 5.6054688 C 28.059159 6.0003616 27.883664 6.7402488 28.076172 7.5371094 C 28.203717 7.1529853 28.506795 6.8255432 29.070312 6.6054688 C 32.342732 5.3274678 41.086692 6.1341569 44.136719 8.4648438 C 44.602852 8.8114856 44.831631 9.1397611 44.931641 9.4746094 C 45.076111 8.7519701 45.046838 8.1416575 44.136719 7.4648438 C 42.230452 6.0081645 38.099593 5.146911 34.470703 5.0175781 z"/>
</svg>
